vendor/shopware/storefront/Resources/app/storefront/dist/assets/icon/default/terminal.svg

<svg xmlns="http://www.w3.org/2000/svg" width="24" height="24" viewBox="0 0 24 24">
  <path fill="#758CA3" fill-rule="evenodd" d="M22,6 L22,3 C22,2.44771525 21.5522847,2 21,2 L3,2 C2.44771525,2 2,2.44771525 2,3 L2,6 L22,6 Z M22,8 L2,8 L2,21 C2,21.5522847 2.44771525,22 3,22 L21,22 C21.5522847,22 22,21.5522847 22,21 L22,8 Z M3,8.95550994e-16 L21,8.95550994e-16 C22.6568542,1.02790497e-15 24,1.34314575 24,3 L24,21 C24,22.6568542 22.6568542,24 21,24 L3,24 C1.34314575,24 2.02906125e-16,22.6568542 0,21 L0,3 C-2.02906125e-16,1.34314575 1.34314575,2.08071949e-15 3,8.95550994e-16 Z M17,3 C17.5522847,3 18,3.44771525 18,4 C18,4.55228475 17.5522847,5 17,5 C16.4477153,5 16,4.55228475 16,4 C16,3.44771525 16.4477153,3 17,3 Z M5,10 L8,10 C8.55228475,10 9,10.4477153 9,11 C9,11.5522847 8.55228475,12 8,12 L5,12 C4.44771525,12 4,11.5522847 4,11 C4,10.4477153 4.44771525,10 5,10 Z M11,10 C11.5522847,10 12,10.4477153 12,11 C12,11.5522847 11.5522847,12 11,12 C10.4477153,12 10,11.5522847 10,11 C10,10.4477153 10.4477153,10 11,10 Z M20,3 C20.5522847,3 21,3.44771525 21,4 C21,4.55228475 20.5522847,5 20,5 C19.4477153,5 19,4.55228475 19,4 C19,3.44771525 19.4477153,3 20,3 Z"/>
</svg>

<svg xmlns="http://www.w3.org/2000/svg" width="24" height="24" viewBox="0 0 24 24"><path fill="#758CA3" fill-rule="evenodd" d="M22 6V3c0-.5523-.4477-1-1-1H3c-.5523 0-1 .4477-1 1v3h20zm0 2H2v13c0 .5523.4477 1 1 1h18c.5523 0 1-.4477 1-1V8zM3 0h18c1.6569 0 3 1.3431 3 3v18c0 1.6569-1.3431 3-3 3H3c-1.6569 0-3-1.3431-3-3V3c0-1.6569 1.3431-3 3-3zm14 3c.5523 0 1 .4477 1 1s-.4477 1-1 1-1-.4477-1-1 .4477-1 1-1zM5 10h3c.5523 0 1 .4477 1 1s-.4477 1-1 1H5c-.5523 0-1-.4477-1-1s.4477-1 1-1zm6 0c.5523 0 1 .4477 1 1s-.4477 1-1 1-1-.4477-1-1 .4477-1 1-1zm9-7c.5523 0 1 .4477 1 1s-.4477 1-1 1-1-.4477-1-1 .4477-1 1-1z"/></svg>
